fs/border_outside_20_filled.svg

<svg viewBox="0 0 20 20" fill="none" xmlns="http://www.w3.org/2000/svg" height="1em" width="1em">
  <path d="M3 6C3 4.34315 4.34315 3 6 3H14C15.6569 3 17 4.34315 17 6V14C17 15.6569 15.6569 17 14 17H6C4.34315 17 3 15.6569 3 14V6ZM6 4.5C5.17157 4.5 4.5 5.17157 4.5 6V14C4.5 14.8284 5.17157 15.5 6 15.5H14C14.8284 15.5 15.5 14.8284 15.5 14V6C15.5 5.17157 14.8284 4.5 14 4.5H6Z" fill="#212121"/>
</svg>

<svg viewBox="0 0 20 20" fill="none" xmlns="http://www.w3.org/2000/svg" height="1em" width="1em">
  <path d="M3 6a3 3 0 0 1 3-3h8a3 3 0 0 1 3 3v8a3 3 0 0 1-3 3H6a3 3 0 0 1-3-3V6Zm3-1.5A1.5 1.5 0 0 0 4.5 6v8A1.5 1.5 0 0 0 6 15.5h8a1.5 1.5 0 0 0 1.5-1.5V6A1.5 1.5 0 0 0 14 4.5H6Z" fill="#212121"/>
</svg>
